X:1
T:[ID 2-44a]
T:[ID 2-44a]
T:Bezeichnung standardisiert: Menuett Menuet In dieser Quelle auch als: Menuetto
T:Urheber unbekannt Erstbeleg: 1767 (Datum in der schriftlichen Quelle) Datum in der hier transkribierten schriftlichen Quelle: 1792
C:Urheber unbekannt
C:Erstbeleg: 1767 (Datum in der schriftlichen Quelle)
C:Datum in der hier transkribierten schriftlichen Quelle: 1792
%%score 1 2
L:1/8
M:3/4
K:D
V:1 treble nm="Primo"
V:2 treble nm="Secondo"
V:1
 d2 d2 fd | a2 a2 bc' | d'2 d'2 c'b | a4 f2 | g2 bgeg | f2 afdf | ef g2 f2 | e6 :: A2 A2 ce | %9
 A2 A2 ec x3 | A2 gefd | ec A2 a2 | bg e2 d2 | cB A2 G2 | FA d2 c2 | d6 :| %16
V:2
 !fermata!F2 F2 AF | d2 d2 ga | b2 b2 ag | f4 d2 | e2 gece | d2 fdBd | cd e2 d2 | c6 :: a2 ggfa | %9
 ag/f/ g3 f2 e2"^[Notat bricht ab]" | x6 | x6 | x6 | x6 | x6 | x6 :| %16

